source/Icon/communication.svg

<svg width="48" height="48" viewBox="0 0 48 48" fill="none" xmlns="http://www.w3.org/2000/svg"><path stroke-linejoin="round" stroke-linecap="round" stroke-width="4" stroke="#333" d="M33 38H22v-8h14v-8h8v16h-5l-3 3-3-3Z"/><path stroke-linejoin="round" stroke-linecap="round" stroke-width="4" stroke="#333" d="M4 6h32v24H17l-4 4-4-4H4V6Z"/><path stroke-linecap="round" stroke-width="4" stroke="#333" d="M19 18h1M26 18h1M12 18h1"/></svg>

<svg width="32" height="32" viewBox="0 0 48 48" fill="none" xmlns="http://www.w3.org/2000/svg">
    <path d="M33 38H22V30H36V22H44V38H39L36 41L33 38Z" stroke="#000000" stroke-width="4" stroke-linecap="round" stroke-linejoin="round"/>
    <path d="M4 6H36V30H17L13 34L9 30H4V6Z" fill="#2F88FF" stroke="#000000" stroke-width="4" stroke-linecap="round" stroke-linejoin="round"/>
    <path d="M19 18H20" stroke="#FFF" stroke-width="4" stroke-linecap="round"/>
    <path d="M26 18H27" stroke="#FFF" stroke-width="4" stroke-linecap="round"/>
    <path d="M12 18H13" stroke="#FFF" stroke-width="4" stroke-linecap="round"/>
</svg>
